flaticon/grooming/hair-clip.svg

<svg xmlns="http://www.w3.org/2000/svg" width="32" height="32" viewBox="0 0 24 24">
    <path d="M 21.640625 13.125 C 20.9375 12.671875 20.152344 12.339844 19.160156 12.132812 C 18.703125 12.007812 18.332031 11.800781 18.042969 11.472656 C 17.378906 10.683594 17.421875 9.441406 18.164062 8.617188 C 21.226562 5.222656 21.144531 3.402344 21.101562 3.03125 C 21.101562 2.035156 20.191406 1.167969 20.152344 1.125 C 19.902344 0.878906 19.449219 0.710938 18.785156 0.628906 C 17.957031 0.546875 17.089844 0.753906 16.425781 1.292969 C 14.484375 2.863281 12.25 3.070312 12 3.070312 C 11.75 3.070312 9.558594 2.863281 7.574219 1.292969 C 6.910156 0.796875 6.042969 0.546875 5.214844 0.628906 C 4.550781 0.710938 4.097656 0.878906 3.847656 1.125 C 3.808594 1.167969 2.898438 2.035156 2.898438 3.03125 C 2.855469 3.402344 2.773438 5.265625 5.835938 8.574219 C 6.578125 9.402344 6.621094 10.644531 5.957031 11.429688 C 5.667969 11.761719 5.296875 12.007812 4.839844 12.089844 C 3.847656 12.339844 3.019531 12.628906 2.359375 13.085938 C 0.828125 14.078125 0 15.195312 0 16.3125 L 0 18.796875 C 0 18.878906 0.0429688 21.070312 2.191406 23.222656 C 2.316406 23.347656 2.484375 23.386719 2.730469 23.347656 C 2.898438 23.304688 2.980469 23.140625 2.980469 22.972656 L 2.980469 17.554688 C 2.980469 17.511719 2.9375 17.304688 3.101562 17.097656 C 3.269531 16.890625 3.640625 16.765625 4.21875 16.765625 C 4.21875 16.765625 4.71875 16.726562 5.171875 16.851562 C 5.378906 16.933594 5.542969 17.058594 5.667969 17.265625 C 5.75 17.472656 5.792969 17.71875 5.710938 17.925781 C 5.378906 18.878906 4.800781 21.359375 6.371094 23.222656 C 6.457031 23.347656 6.621094 23.386719 6.785156 23.347656 C 6.953125 23.304688 7.035156 23.179688 7.074219 23.015625 C 7.324219 21.277344 8.277344 17.59375 9.601562 17.59375 C 9.601562 17.59375 9.972656 17.554688 10.179688 17.761719 C 10.304688 17.882812 10.386719 18.089844 10.386719 18.382812 C 10.304688 18.835938 9.847656 21.609375 10.839844 22.808594 C 11.132812 23.179688 11.585938 23.386719 12.042969 23.386719 C 12.496094 23.386719 12.953125 23.179688 13.242188 22.808594 C 14.234375 21.609375 13.777344 18.878906 13.695312 18.382812 C 13.695312 18.089844 13.777344 17.882812 13.902344 17.761719 C 14.152344 17.554688 14.484375 17.59375 14.484375 17.59375 L 14.523438 17.59375 C 15.808594 17.59375 16.757812 21.238281 17.007812 23.015625 C 17.007812 23.179688 17.132812 23.304688 17.296875 23.347656 C 17.421875 23.386719 17.585938 23.347656 17.710938 23.222656 C 19.242188 21.359375 18.660156 18.917969 18.371094 17.96875 C 18.289062 17.71875 18.332031 17.429688 18.457031 17.222656 C 18.578125 17.015625 18.785156 16.851562 19.035156 16.808594 C 19.449219 16.683594 19.820312 16.726562 19.863281 16.726562 C 20.398438 16.726562 20.773438 16.851562 20.980469 17.058594 C 21.144531 17.222656 21.101562 17.472656 21.101562 17.472656 C 21.101562 17.511719 21.101562 17.511719 21.101562 17.554688 L 21.101562 22.933594 C 21.101562 23.097656 21.1875 23.222656 21.351562 23.304688 C 21.394531 23.347656 21.476562 23.347656 21.515625 23.347656 C 21.640625 23.347656 21.722656 23.304688 21.808594 23.265625 C 23.957031 21.113281 24 18.917969 24 18.835938 L 24 16.355469 C 24 15.238281 23.171875 14.121094 21.640625 13.125 Z M 23.253906 18.753906 C 23.253906 18.753906 23.214844 20.160156 22.015625 21.773438 L 22.015625 17.511719 C 22.015625 17.386719 22.054688 16.890625 21.683594 16.476562 C 21.308594 16.0625 20.730469 15.855469 19.945312 15.855469 C 19.902344 15.855469 19.40625 15.816406 18.867188 15.941406 C 18.414062 16.0625 18.042969 16.355469 17.792969 16.765625 C 17.542969 17.222656 17.460938 17.71875 17.628906 18.175781 C 17.835938 18.878906 18.207031 20.410156 17.628906 21.773438 C 17.253906 19.996094 16.34375 16.765625 14.523438 16.726562 C 14.359375 16.726562 13.777344 16.683594 13.324219 17.097656 C 12.992188 17.386719 12.828125 17.84375 12.828125 18.382812 C 12.828125 18.421875 12.828125 18.421875 12.828125 18.464844 C 12.992188 19.25 13.242188 21.484375 12.578125 22.269531 C 12.414062 22.4375 12.25 22.519531 12 22.519531 C 11.75 22.519531 11.585938 22.4375 11.421875 22.269531 C 10.757812 21.484375 11.007812 19.25 11.171875 18.464844 C 11.171875 18.421875 11.171875 18.421875 11.171875 18.382812 C 11.171875 17.800781 11.007812 17.386719 10.675781 17.097656 C 10.304688 16.765625 9.808594 16.726562 9.601562 16.726562 C 9.558594 16.726562 9.515625 16.726562 9.515625 16.726562 C 7.695312 16.726562 6.785156 19.996094 6.414062 21.773438 C 5.835938 20.367188 6.25 18.835938 6.453125 18.132812 C 6.578125 17.71875 6.539062 17.265625 6.332031 16.851562 C 6.125 16.476562 5.75 16.1875 5.335938 16.0625 C 4.71875 15.898438 4.136719 15.941406 4.136719 15.941406 C 3.351562 15.941406 2.773438 16.148438 2.398438 16.5625 C 2.027344 16.972656 2.070312 17.429688 2.070312 17.59375 L 2.070312 21.816406 C 0.867188 20.242188 0.828125 18.796875 0.828125 18.796875 L 0.828125 16.3125 C 0.828125 15.320312 1.902344 14.367188 2.8125 13.789062 C 3.394531 13.414062 4.097656 13.125 5.007812 12.917969 C 5.667969 12.796875 6.164062 12.464844 6.578125 12.007812 C 7.53125 10.890625 7.488281 9.238281 6.453125 8.078125 C 3.515625 4.808594 3.722656 3.152344 3.722656 3.152344 C 3.722656 3.113281 3.722656 3.113281 3.722656 3.070312 C 3.722656 2.53125 4.21875 1.914062 4.425781 1.707031 C 4.425781 1.664062 4.632812 1.539062 5.296875 1.457031 C 5.917969 1.375 6.539062 1.582031 7.035156 1.953125 C 9.308594 3.734375 11.835938 3.898438 11.957031 3.898438 L 12 3.898438 C 12.125 3.898438 14.648438 3.734375 16.925781 1.953125 C 17.421875 1.582031 18.042969 1.375 18.660156 1.457031 C 19.367188 1.539062 19.53125 1.664062 19.574219 1.707031 C 19.574219 1.707031 20.277344 2.410156 20.277344 3.070312 C 20.277344 3.113281 20.277344 3.152344 20.277344 3.152344 C 20.277344 3.152344 20.484375 4.808594 17.628906 8.035156 C 16.59375 9.152344 16.550781 10.851562 17.503906 11.96875 C 17.917969 12.421875 18.457031 12.753906 19.074219 12.878906 C 19.945312 13.085938 20.691406 13.375 21.269531 13.746094 C 22.179688 14.324219 23.253906 15.238281 23.253906 16.269531 Z M 23.253906 18.753906"/>
    <path d="M 14.070312 6.796875 L 9.929688 6.796875 C 9.019531 6.796875 8.277344 7.539062 8.277344 8.449219 C 8.277344 9.359375 9.019531 10.105469 9.929688 10.105469 L 14.070312 10.105469 C 14.980469 10.105469 15.722656 9.359375 15.722656 8.449219 C 15.722656 7.539062 14.980469 6.796875 14.070312 6.796875 Z M 14.070312 9.277344 L 9.929688 9.277344 C 9.476562 9.277344 9.101562 8.90625 9.101562 8.449219 C 9.101562 7.996094 9.476562 7.621094 9.929688 7.621094 L 14.070312 7.621094 C 14.523438 7.621094 14.898438 7.996094 14.898438 8.449219 C 14.898438 8.90625 14.523438 9.277344 14.070312 9.277344 Z M 14.070312 9.277344"/>
</svg>

<svg xmlns="http://www.w3.org/2000/svg" width="32" height="32" viewBox="0 0 24 24">
    <path d="M21.64 13.125c-.703-.453-1.488-.785-2.48-.992-.457-.125-.828-.332-1.117-.66-.664-.79-.621-2.032.121-2.856 3.063-3.394 2.98-5.215 2.938-5.586 0-.996-.91-1.863-.95-1.906-.25-.246-.703-.414-1.367-.496-.828-.082-1.695.125-2.36.664C14.486 2.863 12.25 3.07 12 3.07s-2.441-.207-4.426-1.777a3.445 3.445 0 0 0-2.36-.664c-.663.082-1.116.25-1.366.496-.04.043-.95.91-.95 1.906-.043.371-.125 2.235 2.938 5.543.742.828.785 2.07.121 2.856-.289.332-.66.578-1.117.66-.992.25-1.82.539-2.48.996C.827 14.078 0 15.196 0 16.312v2.485c0 .082.043 2.273 2.191 4.426.125.125.293.164.54.125.167-.043.25-.207.25-.375v-5.418c0-.043-.043-.25.12-.457.169-.207.54-.332 1.118-.332 0 0 .5-.04.953.086a.965.965 0 0 1 .496.414c.082.207.125.453.043.66-.332.953-.91 3.433.66 5.297.086.125.25.164.414.125.168-.043.25-.168.29-.332.25-1.739 1.202-5.422 2.527-5.422 0 0 .37-.04.578.168.125.12.207.328.207.62-.082.454-.54 3.227.453 4.427a1.54 1.54 0 0 0 1.203.578c.453 0 .91-.207 1.2-.578.991-1.2.534-3.93.452-4.426 0-.293.082-.5.207-.621.25-.207.582-.168.582-.168h.04c1.285 0 2.234 3.644 2.484 5.422 0 .164.125.289.289.332.125.039.289 0 .414-.125 1.531-1.864.95-4.305.66-5.254a.932.932 0 0 1 .086-.746.848.848 0 0 1 .578-.414c.414-.125.785-.082.828-.082.535 0 .91.125 1.117.332.165.164.122.414.122.414V22.934c0 .164.085.289.25.37.043.044.125.044.164.044.125 0 .207-.043.293-.082C23.957 21.113 24 18.918 24 18.836v-2.48c0-1.118-.828-2.235-2.36-3.231zm1.614 5.629s-.04 1.406-1.238 3.02v-4.262c0-.125.039-.621-.332-1.035-.375-.415-.954-.622-1.739-.622-.043 0-.539-.039-1.078.086a1.797 1.797 0 0 0-1.074.825c-.25.457-.332.953-.164 1.41.207.703.578 2.234 0 3.597-.375-1.777-1.285-5.007-3.106-5.046-.164 0-.746-.043-1.199.37-.332.29-.496.747-.496 1.286v.082c.164.785.414 3.02-.25 3.805a.738.738 0 0 1-.578.25.738.738 0 0 1-.578-.25c-.664-.786-.414-3.02-.25-3.805v-.082c0-.582-.164-.996-.496-1.285-.371-.332-.867-.371-1.074-.371h-.086c-1.82 0-2.73 3.27-3.102 5.046-.578-1.406-.164-2.937.04-3.64a1.732 1.732 0 0 0-.122-1.281 1.72 1.72 0 0 0-.996-.79c-.617-.164-1.2-.12-1.2-.12-.784 0-1.363.206-1.738.62-.37.41-.328.868-.328 1.032v4.222C.867 20.242.828 18.796.828 18.796v-2.483c0-.993 1.074-1.946 1.985-2.524.582-.375 1.285-.664 2.195-.871.66-.121 1.156-.453 1.57-.91.953-1.117.91-2.77-.125-3.93-2.937-3.27-2.73-4.926-2.73-4.926V3.07c0-.539.496-1.156.703-1.363 0-.043.207-.168.87-.25.622-.082 1.243.125 1.74.496 2.273 1.781 4.8 1.945 4.921 1.945H12c.125 0 2.648-.164 4.926-1.945.496-.371 1.117-.578 1.734-.496.707.082.871.207.914.25 0 0 .703.703.703 1.363v.082s.207 1.657-2.648 4.883c-1.035 1.117-1.078 2.817-.125 3.934.414.453.953.785 1.57.91.871.207 1.617.496 2.196.867.91.578 1.984 1.492 1.984 2.524zm0 0"/>
    <path d="M14.07 6.797H9.93c-.91 0-1.653.742-1.653 1.652 0 .91.743 1.656 1.653 1.656h4.14c.91 0 1.653-.746 1.653-1.656 0-.91-.743-1.652-1.653-1.652zm0 2.48H9.93a.831.831 0 0 1-.828-.828c0-.453.375-.828.828-.828h4.14c.453 0 .828.375.828.828a.831.831 0 0 1-.828.828zm0 0"/>
</svg>
